assets/images/mobile-bg-cont.svg

<svg xmlns="http://www.w3.org/2000/svg" width="428" height="1093" fill="none"><path stroke="#B1B1B1" stroke-linecap="round" d="m214.666 364.064 17.628-25.566c1.302-1.889 4.242-.455 3.555 1.734l-12.075 38.45c-.701 2.232 2.343 3.646 3.597 1.672l34.022-53.579c1.254-1.975 4.297-.56 3.597 1.671l-21.208 67.534c-.712 2.267 2.419 3.663 3.63 1.618l38.602-65.244c1.256-2.123 4.491-.535 3.58 1.757l-27.383 68.858c-.913 2.295 2.331 3.882 3.583 1.752l45.612-77.641L281 392.99c-1.005 2.179 1.977 3.957 3.416 2.038l25.439-33.915c1.349-1.799 4.182-.346 3.508 1.799l-12.378 39.418c-.704 2.242 2.365 3.651 3.606 1.655l12.976-20.864c1.241-1.995 4.311-.586 3.607 1.656l-6.339 20.186"/><path fill="#343434" fill-opacity=".08" d="M500.837 0 322 120h102.991L602 1.227 500.837 0Z"/><path fill="#FFB75E" fill-opacity=".13" d="M94.944 332.175-178 448.367l117.243 42.717L209.396 376.08 94.944 332.175ZM178.579 972.982l-300.615-197.947 117.534-41.907 339.967 236.649-156.886 3.205Z"/></svg>

<svg width="428" height="1093" viewBox="0 0 428 1093" fill="none" xmlns="http://www.w3.org/2000/svg">
<path d="M214.666 364.064L232.294 338.498C233.596 336.609 236.536 338.043 235.849 340.232L223.774 378.682C223.073 380.914 226.117 382.328 227.371 380.354L261.393 326.775C262.647 324.8 265.69 326.215 264.99 328.446L243.782 395.98C243.07 398.247 246.201 399.643 247.412 397.598L286.014 332.354C287.27 330.231 290.505 331.819 289.594 334.111L262.211 402.969C261.298 405.264 264.542 406.851 265.794 404.721L311.406 327.08L281 392.99C279.995 395.169 282.977 396.947 284.416 395.028L309.855 361.113C311.204 359.314 314.037 360.767 313.363 362.912L300.985 402.33C300.281 404.572 303.35 405.981 304.591 403.985L317.567 383.121C318.808 381.126 321.878 382.535 321.174 384.777L314.835 404.963" stroke="#B1B1B1" stroke-linecap="round"/>
<path d="M500.837 0L322 120H424.991L602 1.22657L500.837 0Z" fill="#343434" fill-opacity="0.08"/>
<path d="M94.9435 332.175L-178 448.367L-60.7573 491.084L209.396 376.08L94.9435 332.175Z" fill="#FFB75E" fill-opacity="0.13"/>
<path d="M178.579 972.982L-122.036 775.035L-4.50194 733.128L335.465 969.777L178.579 972.982Z" fill="#FFB75E" fill-opacity="0.13"/>
</svg>
